X:52
T:The Twelve Days of Christmas (2)
T:the twelfth day
Z:Jack Campin, http://www.campin.me.uk/
S:Northumbrian Minstrelsy
M:2/4
L:1/8
K:G
  D|G2  G A |(G`F) E D |G G B G|Hd4
    c2  A c | B G  z2  |         \
    c c A c | B G  z2  |         \
    c2  A c | B G  z2  |
    c2  A c | B G  z2  |         \
    c2  A c | B G  z2  |         \
    c2  A c | B G  z2  |
    c2  A c | d2  Hd2  |         \
    G2  B2  | E2   z2  |         \
    F2  A F | D2   z2  |         \
    G2  B2  | D2   z2  | 
    F2  A F | D2                 \
E F|G2 (B`d)| c A (G`F)|G3   |]

